src/catppuccin-frappe-light-cursors/color-picker_24.svg

<?xml version="1.0" encoding="UTF-8" standalone="no"?>
<svg
   id="svg2"
   width="24"
   height="24"
   version="1.1"
   sodipodi:docname="color-picker_24.svg"
   inkscape:version="1.1.2 (0a00cf5339, 2022-02-04)"
   xmlns:inkscape="http://www.inkscape.org/namespaces/inkscape"
   xmlns:sodipodi="http://sodipodi.sourceforge.net/DTD/sodipodi-0.dtd"
   xmlns="http://www.w3.org/2000/svg"
   xmlns:svg="http://www.w3.org/2000/svg">
  <sodipodi:namedview
     id="namedview11"
     pagecolor="#ffffff"
     bordercolor="#666666"
     borderopacity="1.0"
     inkscape:pageshadow="2"
     inkscape:pageopacity="0.0"
     inkscape:pagecheckerboard="0"
     showgrid="false"
     inkscape:zoom="18.55"
     inkscape:cx="9.9191375"
     inkscape:cy="8.5714286"
     inkscape:window-width="936"
     inkscape:window-height="1020"
     inkscape:window-x="969"
     inkscape:window-y="45"
     inkscape:window-maximized="1"
     inkscape:current-layer="svg2">
    <inkscape:grid
       type="xygrid"
       id="grid1180" />
  </sodipodi:namedview>
  <defs
     id="defs4">
    <filter
       id="filter859"
       style="color-interpolation-filters:sRGB"
       width="1.12"
       height="1.12"
       x="-0.059999999"
       y="-0.059999999">
      <feGaussianBlur
         id="feGaussianBlur861"
         stdDeviation=".55" />
    </filter>
    <filter
       id="filter822"
       style="color-interpolation-filters:sRGB"
       width="1.1441028"
       height="1.1440039"
       x="-0.072051421"
       y="-0.072001964">
      <feGaussianBlur
         id="feGaussianBlur824"
         stdDeviation=".66" />
    </filter>
    <filter
       inkscape:collect="always"
       style="color-interpolation-filters:sRGB"
       id="filter1280"
       x="-0.023477374"
       y="-0.023456154"
       width="1.0469547"
       height="1.0469123">
      <feGaussianBlur
         inkscape:collect="always"
         stdDeviation="0.16614188"
         id="feGaussianBlur1282" />
    </filter>
  </defs>
  <path
     style="color:#000000;opacity:0.1;fill:#000000;fill-opacity:1;stroke-linecap:round;stroke-linejoin:round;-inkscape-stroke:none;filter:url(#filter1280)"
     d="m 16.63712,3.4996005 c -0.635737,0 -1.279371,0.239768 -1.769531,0.7167969 L 11.758214,7.241788 c -0.621077,0.01025 -1.24277,0.16578 -1.722657,0.6328125 L 9.5004011,8.398038 C 8.8699602,9.0115892 8.7888503,9.8657309 8.9711042,10.673427 L 4.9691511,14.67538 a 1.0001,1.0001 0 0 0 -0.2539063,0.431641 l -1.1757812,4.117187 a 1.0001,1.0001 0 0 0 1.2363281,1.236328 l 4.1171875,-1.175781 a 1.0001,1.0001 0 0 0 0.4316407,-0.253906 l 4.0234371,-4.021484 c 0.833006,0.218208 1.720458,0.162343 2.376953,-0.476563 a 1.0001,1.0001 0 0 0 0.002,0 l 0.535156,-0.523437 c 0.590385,-0.574571 0.699519,-1.366791 0.578125,-2.13086 l 2.91011,-2.8320295 c 0.979511,-0.9532668 0.97951,-2.5701702 0,-3.5234375 L 18.408604,4.2163974 C 17.918444,3.7393685 17.272857,3.4996005 16.63712,3.4996005 Z m 0,2 c 0.140526,0 0.272302,0.048543 0.376953,0.1503906 l 1.341797,1.3066406 c 0.210114,0.2044854 0.210114,0.4517656 0,0.65625 l -3.257813,3.1718733 a 1.0001,1.0001 0 0 0 -0.15625,1.236328 c 0.111641,0.183886 0.102145,0.383049 -0.07422,0.554688 a 1.0001,1.0001 0 0 0 -0.002,0.002 l -0.535156,0.521484 c -0.194048,0.18885 -0.492084,0.196157 -0.703125,0.0332 a 1.0001,1.0001 0 0 0 -0.197265,0.01172 1.0001,1.0001 0 0 0 -0.265625,-0.449218 L 12.771885,12.316005 11.432042,11.011318 11.26212,10.843349 a 1.0001,1.0001 0 0 0 -0.248047,0.002 1.0001,1.0001 0 0 0 -0.167969,-0.423828 c -0.14308,-0.19296 -0.140021,-0.408006 0.04883,-0.5917954 l 0.535157,-0.5214843 c 0.136518,-0.132862 0.329177,-0.175188 0.515625,-0.1269532 A 1.0001,1.0001 0 0 0 12.894932,8.929288 L 16.26212,5.6499911 c 0.104651,-0.1018473 0.234473,-0.1503906 0.375,-0.1503906 z m -6.066406,7.4648425 0.472656,0.458984 -3.341797,3.341797 -0.6542969,0.1875 0.1875,-0.654297 z"
     id="path1242" />
  <path
     style="color:#000000;fill:#1e1e28;stroke-linecap:round;stroke-linejoin:round;-inkscape-stroke:none;fill-opacity:1"
     d="M 16.136719,3 C 15.500982,3 14.857348,3.239768 14.367188,3.7167969 L 11.257813,6.7421875 C 10.636736,6.7524376 10.015043,6.9079675 9.5351563,7.375 L 9,7.8984375 C 8.3695591,8.5119887 8.2884492,9.3661304 8.4707031,10.173828 L 4.46875,14.175781 a 1.0001,1.0001 0 0 0 -0.2539063,0.431641 l -1.1757812,4.117187 a 1.0001,1.0001 0 0 0 1.2363281,1.236328 L 8.3925781,18.785156 A 1.0001,1.0001 0 0 0 8.8242188,18.53125 l 4.0234372,-4.021484 c 0.833006,0.218208 1.720458,0.162343 2.376953,-0.476563 a 1.0001,1.0001 0 0 0 0.002,0 l 0.535156,-0.523437 c 0.590385,-0.574571 0.699519,-1.366791 0.578125,-2.13086 L 19.25,8.546875 c 0.979511,-0.9532668 0.97951,-2.5701702 0,-3.5234375 L 17.908203,3.7167969 C 17.418043,3.239768 16.772456,3 16.136719,3 Z m 0,2 c 0.140526,0 0.272302,0.048543 0.376953,0.1503906 l 1.341797,1.3066406 c 0.210114,0.2044854 0.210114,0.4517656 0,0.65625 l -3.257813,3.1718748 a 1.0001,1.0001 0 0 0 -0.15625,1.236328 c 0.111641,0.183886 0.102145,0.383049 -0.07422,0.554688 a 1.0001,1.0001 0 0 0 -0.002,0.002 l -0.535156,0.521484 c -0.194048,0.18885 -0.492084,0.196157 -0.703125,0.0332 a 1.0001,1.0001 0 0 0 -0.197265,0.01172 1.0001,1.0001 0 0 0 -0.265625,-0.449218 L 12.271484,11.816406 10.931641,10.511719 10.761719,10.34375 a 1.0001,1.0001 0 0 0 -0.248047,0.002 1.0001,1.0001 0 0 0 -0.167969,-0.423828 c -0.14308,-0.1929611 -0.140021,-0.4080074 0.04883,-0.5917969 l 0.535157,-0.5214843 c 0.136518,-0.132862 0.329177,-0.175188 0.515625,-0.1269532 A 1.0001,1.0001 0 0 0 12.394531,8.4296875 L 15.761719,5.1503906 C 15.86637,5.0485433 15.996192,5 16.136719,5 Z m -6.066406,7.464844 0.472656,0.458984 -3.3417971,3.341797 -0.6542969,0.1875 0.1875,-0.654297 z"
     id="path1182" />
  <path
     id="path838"
     style="fill:#C6D0F5;fill-opacity:1;stroke:none;stroke-width:1.88341;stroke-linecap:round;stroke-linejoin:round;stroke-miterlimit:4;stroke-dasharray:none;stroke-opacity:1"
     d="m 16.137694,4.0000016 c -0.388132,0 -0.776324,0.1441554 -1.07373,0.4335938 L 11.696288,7.7133803 C 11.190932,7.5826426 10.630742,7.7041328 10.232909,8.0913098 L 9.6967764,8.6142593 C 9.1612986,9.1353915 9.1128561,9.939007 9.5415034,10.517091 L 5.1762695,14.882325 4,19 8.1176752,17.823731 12.516601,13.424805 c 0.597054,0.461012 1.4588,0.429231 2.01123,-0.108398 l 0.536133,-0.522949 c 0.501491,-0.488057 0.575579,-1.224674 0.231445,-1.791503 l 3.257812,-3.1713872 c 0.594813,-0.5788762 0.594813,-1.511455 0,-2.0903319 L 17.211424,4.4335954 C 16.914018,4.144157 16.525826,4.0000016 16.137694,4.0000016 Z m -6.076172,7.0576164 0.171387,0.168458 1.341797,1.30664 0.392578,0.380859 -4.2421865,4.242188 -2.633789,0.752929 0.7529297,-2.633789 z" />
</svg>

<svg xmlns="http://www.w3.org/2000/svg" width="24" height="24">
    <defs>
        <filter id="a" width="1.047" height="1.047" x="-.023" y="-.023" style="color-interpolation-filters:sRGB">
            <feGaussianBlur stdDeviation=".166"/>
        </filter>
    </defs>
    <path d="M16.637 3.5c-.636 0-1.28.24-1.77.716l-3.109 3.026c-.62.01-1.243.166-1.722.633l-.536.523c-.63.614-.711 1.468-.529 2.275L4.97 14.675a1 1 0 0 0-.254.432L3.54 19.224a1 1 0 0 0 1.237 1.237l4.117-1.176a1 1 0 0 0 .432-.254l4.023-4.022c.833.219 1.72.163 2.377-.476h.002l.535-.524c.59-.574.7-1.366.578-2.13l2.91-2.833a2.48 2.48 0 0 0 0-3.523L18.41 4.216a2.54 2.54 0 0 0-1.772-.716m0 2a.53.53 0 0 1 .377.15l1.342 1.307c.21.204.21.451 0 .656l-3.258 3.172a1 1 0 0 0-.156 1.236c.111.184.102.383-.074.555l-.002.002-.536.521a.535.535 0 0 1-.703.033 1 1 0 0 0-.197.012 1 1 0 0 0-.266-.449l-.392-.379-1.34-1.305-.17-.168a1 1 0 0 0-.248.002 1 1 0 0 0-.168-.423c-.143-.193-.14-.408.049-.592l.535-.522a.54.54 0 0 1 .516-.127 1 1 0 0 0 .949-.252l3.367-3.279a.53.53 0 0 1 .375-.15m-6.066 7.464.472.46-3.341 3.341-.655.188.188-.655z" style="color:#000;opacity:.1;fill:#000;fill-opacity:1;stroke-linecap:round;stroke-linejoin:round;-inkscape-stroke:none;filter:url(#a)"/>
    <path d="M16.137 3c-.636 0-1.28.24-1.77.717l-3.11 3.025c-.62.01-1.242.166-1.722.633L9 7.898c-.63.614-.712 1.468-.53 2.276l-4 4.002a1 1 0 0 0-.254.431L3.04 18.725a1 1 0 0 0 1.236 1.236l4.118-1.176a1 1 0 0 0 .431-.254l4.024-4.021c.833.218 1.72.162 2.377-.477h.002l.535-.523c.59-.575.7-1.367.578-2.131l2.91-2.832a2.48 2.48 0 0 0 0-3.524l-1.342-1.306A2.54 2.54 0 0 0 16.137 3m0 2a.53.53 0 0 1 .377.15l1.341 1.307c.21.205.21.452 0 .656l-3.257 3.172a1 1 0 0 0-.157 1.236c.112.184.103.384-.074.555l-.002.002-.535.522a.535.535 0 0 1-.703.033 1 1 0 0 0-.197.012 1 1 0 0 0-.266-.45l-.393-.379-1.34-1.304-.17-.168a1 1 0 0 0-.247.002 1 1 0 0 0-.168-.424c-.143-.193-.14-.408.049-.592l.535-.521a.54.54 0 0 1 .515-.127 1 1 0 0 0 .95-.252l3.367-3.28a.53.53 0 0 1 .375-.15m-6.067 7.465.473.459-3.342 3.342-.654.187.187-.654z" style="color:#000;fill:#1e1e28;stroke-linecap:round;stroke-linejoin:round;-inkscape-stroke:none;fill-opacity:1"/>
    <path d="M16.138 4c-.388 0-.777.144-1.074.434l-3.368 3.28a1.54 1.54 0 0 0-1.463.377l-.536.523a1.44 1.44 0 0 0-.155 1.903l-4.366 4.365L4 19l4.118-1.176 4.399-4.4a1.54 1.54 0 0 0 2.01-.108l.537-.523a1.44 1.44 0 0 0 .231-1.791l3.258-3.171a1.447 1.447 0 0 0 0-2.09l-1.342-1.307A1.54 1.54 0 0 0 16.138 4m-6.076 7.058.17.168 1.343 1.307.392.38-4.242 4.243-2.634.753.753-2.634z" style="fill:#c6d0f5;fill-opacity:1;stroke:none;stroke-width:1.88341;stroke-linecap:round;stroke-linejoin:round;stroke-miterlimit:4;stroke-dasharray:none;stroke-opacity:1"/>
</svg>
